X:4290
T:Doon the Bank
M:4/4
L:1/8
K:G
B|AFsEDs G2 GsBs|AFsEDs E2 EsBs|AFsEDs dcdf|ecBA D3:|!
A|dcdf ecBA|dcdf A4|A dcdf ec B|A A>BAF D3:|
